X:1
T:Jog On, Jog On
M:6/8
L:1/8
K:G
 D| G2 D G2 A| B3/2- c/2 BA-F D| G3/2 A/2 G d2 c| B3 A2 D| A2 B c3/2- d/2 c|\
 B3/2- c/2 B A3/2- G/2 F| G3/2- A/2 G F3/2- G/2 F| E3 D3| z6| z4 z D|\
 G2 D G2 A| B3/2- c/2 BA-F D| G3/2- A/2 G d2 c| B3 A2 D| AAB c3/2- d/2 c|\
 B3/2- c/2 B A3/2- G/2 F| G3/2 A/2 G F3/2- G/2 F| E3 D3| z6| z6| G3/2 G/2 D G2 A|\
 B3/2- c/2 BA-F D| G3/2- A/2 G d2 c| B3 A2 D| A2 B c3/2- d/2 c| B3/2- c/2 B A3/2- G/2 F|\
 G3/2- A/2 G F3/2- G/2 F| E3 D2 z|
